X: 18282
T: Humours Of Scarriff, The
R: reel
M: 4/4
K: Ddorian
d3e e!slide!fed|cAGc AcGc|Adde e!slide!fed|cAGE EDDA|
{AB^c}d3e e!slide!fed|cAGc AcGc|Adde e!slide!fed|cAGE EDDf|
ecgc acgc|ecgc eaag|ecc/c/c acgc|eAB/c/d eddf|
ecgc acgc|ecgc eaag|a_bag efed|cAGE EDD2|

